X:521
T: "Rechter Geschmack"
N: Z1201
O: Europa, Mitteleuropa, Ober - Oesterreich
R: Liebes - Lied
M: 3/4
L: 1/8
K: G
DG | (3BdGG4 | AceAce | F4
DF | (3AcFF4 | GBdGBd | G4
DG | (3BdGG4 | AceAce | F4
DF | AcF2F2 | G4

@@@ Tune index: 10279
